X:1
T:The Cruise of the Dove
M:4/4
L:1/8
K:G
 D| G2 GG G2B-A| G2F-E E D2 D| E2 EF G2G-A| B2 cA B3| D| GGB,-C D2E-F|\
 GG B,C D D2 D|E-F GA B2 AG| d2 DD G3||
